X:1
T:Khvalitye imya Gospodie
T:Сергeй Рахманинов, 1915
T:Воскрес из гроба
T:(Тропарь, знаменного распева) Всенощное бдение, Op. 37, No. 14
T:Public Domain
T:Public Domain
T:Public Domain
T:Public Domain
T:Public Domain
T:Public Domain
C:Sergei Rakhmanninov
Z:Public Domain
%%score [ 1 ( 2 3 ) ( 4 5 ) ( 6 7 ) ]
L:1/8
Q:1/4=40
M:4/4
K:C
V:1 treble nm="Сопрано" snm="С."
V:2 treble nm="Альтъ" snm="А."
V:3 treble 
V:4 treble-8 nm="Теноръ" snm="Т."
V:5 treble-8 
V:6 bass nm="Басъ" snm="Б."
V:7 bass 
V:1
"^Медленно\nSlow"!mf!"^Вос       –       –       крес                  из          гро    –     ба       и          у – зы     рас – тер   –  зал                       е  –""^Vos       –       –        kres                   iz          gro     –     ba        i          u – zyi      ras – ter    –   zal                      ye –" (A6!>(! Bc)!>)! | %1
!p! d6 c2 | d4 d2 c2 | d2 d2!>(! e2 f2!>)! |!pp!!<(! g4 fede!<)! | %5
!mf!"^– си                                              а       –       да,                раз–ру  – шил            е         –        си                    о         –         суж  –  де   –   ни –""^–  si                                               a       –      da,                 raz–ru   – shil             ye       –        si                      o        –         suzh –  de   –    ni  –" (f2 e4!>(! dc)!>)! | %6
!p!!>(! d4!pp! !breath!c4!>)! |!p! A2!<(! Bc!>(! !tenuto!d4!<)!!>)! |!p! (c2 B2) A4 | %9
!mf! f2!<(! fe!f! fg fe!<)! | %10
"^– е           смер      –       ти,        Гос–по–ди,                             вся  от  се   –   тей     вра  – га      из     –    ба  – ви  – вый;""^– ye         smer     –        ti,          Gos–po–di,                           vsya  ot  se   –    tei       vra   – ga       iz      –    ba  – vi   –  vyii;" de!>(! (f2 e2) dc!>)! | %11
!mf!!>(! e2 d2!p! !breath!c4!>)! | %12
[M:2/4]"^немного скорее\na little faster"[Q:1/4=55]!p! c2!<(! cc!<)! | %13
[M:4/4]!mf! cd cB!<(! AB c2!<)! | _B2!>(! AG!p! F4!>)! | %15
[M:6/4]!mf!"^я         –        ви   –   вый  же  Се      –       бе       а   –  по        –          –        сто–лом  Тво        –         им,          по    –""^ya       –        vi    –    vyii  zhe  Se     –       be       a   –   po        –          –        sto –lom   Tvo       –         im,           po   –"!<(! (d2 ef)"^задерживая\nslowing"[Q:1/4=45]!f! g3 f!>(! f2 fe!<)!!>)! | %16
[M:4/4]"^Прежний темп\nFirst tempo"[Q:1/4=40]!p! fg fe (de f2-) | f2 e2 dc!>(! d2-!>)! | %18
 d4!pp! !breath!c4 |!p! (A4!>(! B2 c2)!>)! | %20
"^очень мягко\nvery softly"!pp!"^–слал                    е     –    си               я         на       про -по -ведь,       и              те –ми      мир  Твой  по –дал                     е – си,""^–slal                      ye   –     si               ya       na        pro–po –ved',         i              tye–mi      mir   Tvoi    po–dal                      ye –si," d6 c2 | %21
 d4 d2!<(! cB!<)! |!mf! c2!>(! B2 A4!>)! |!p! G4!<(! G2 A2!<)! | B2 cB!>(! AB c2-!>)! | %25
 c2!p! B2 c4 | %26
!mf!"^е         –        ди       –      не                  Мно    –        –     го  – ми      –     лос –ти        –     ве.""^ye       –        di        –      ne                  Mno    –        –     go  –  mi      –      los –  ti        –     vye." edef g4 | %27
"^постепенно ослабляя звук\ngradually weakening the sound"!>(! fede (f3 e)!>)! | %28
[M:6/4]"^задерживая\nslowing" d2[Q:1/4=35] (cd e2) d2 c4 | d12- |!ppp! !fermata!d12 |] %31
V:2
!mf!"^Вос      –       –       крес                   из          гро     –    ба       и            у        –     зы                      рас  –  тер  –  зал        е  –""^Vos      –       –        kres                    iz           gro     –     ba       i             u       –     zyi                       ras  –   ter  –   zal       ye –"!>(! F8!>)! | %1
!p! B,6 C2 | B,4 B,2 C2 | B,4!>(! (B,3 C)!>)! |!pp! D2!<(! EF GA _B2!<)! | %5
!mf!"^– си                                               а       –       да,               раз –ру – шил             е        –        си      о    –    суж     –     де           –           ни –""^– si                                                a        –      da,                raz –ru  – shil              ye      –        si       o     –   suzh    –     de           –           ni  –" (A6!>(! AG)!>)! | %6
!p!!>(! F4!pp! !breath!E4!>)! |!p! F2!<(! F2!>(! !tenuto!F4!<)!!>)! |!p! (E2 D2) C2!<(! DE!<)! | %9
 (3!tenuto!F!tenuto!G!tenuto!A!f! _B4!<(! Bc!<)! | %10
"^– е           смер      –       ти,        Гос–по–ди,""^– ye         smer     –        ti,          Gos–po–di,"!>(! _BA (GA!>(! B2) A2!>)!!>)! | %11
!>(! Ac B2!p! !breath!A4!>)! | %12
[M:2/4]!p!"^от    се      –     тей     вра  – га        из     –   ба  – ви –вый;   я –""^ot     se      –      tei       vra   – ga        iz      –   ba  – vi – vyii;    ya–" F2 F2 | %13
[M:4/4] E2 F2!<(! F2 G2!<)! | !tenuto!D2!>(! ^C2 D2 EF!>)! | %15
[M:6/4]!mf!"^–ви        –      вый               же   Се       –       бе       а  – по        –           –           сто    –    лом     Тво  –   им,""^– vi         –      vyii              zhe    Se       –       be      a   – po          –          –          sto      –   lom     Tvo   –   im,"!<(! G4!f! (GA _B2)!>(! A2 c2!<)!!>)! | %16
[M:4/4]!p! B2 A2 (B2 cA | BA) B4!>(! AG!>)! | (FE F2)!pp! !breath!E4 | %19
!p!"^по  –""^po  –" (A,2 B,C!>(! D3 E)!>)! | %20
!pp!"^–слал                  е      –    си              я         на        про –по–ведь,     и              те –ми        мир           по  – дал        е        –        си,    е –""^–slal                    ye    –    si              ya        na        pro –po –ved',      i               tye–mi        mir            po –  dal         ye      –        si,    ye–" (F3 G FE) DE | %21
 (F3 G) FE DF | E2 E2 (E2 F2) |!p! [CE]4!<(! [CE]2 EF!<)! |!>(! [CG]4 [CF]2 [CE]2!>)! | %25
 (DE F2) [CE]2!p! G2 | %26
"^–  ди      –      не                Мно     –       го             –            ми           –          лос  –  ти      –     ве.""^–  di       –       ne               Mno     –       go             –             mi           –           los   –   ti       –    vye." c4 (B2 AG) | %27
!>(! A4 A4!>)! |[M:6/4] (A2 ^G2 A2) [FA]2 ([EA]2 [C=G]2) | (F3 G FEDE F2 E2 | !fermata![B,D]12) |] %31
V:3
 x8 | x8 | x8 | x8 | x8 | x8 | x8 | x8 | x8 | x8 | x8 | x8 |[M:2/4] x4 |[M:4/4] x8 | x8 | %15
[M:6/4] x12 |[M:4/4] x8 | x8 | x8 | x8 | x8 | x8 | x8 | x2 x2 x2 C2 | x8 | (C2 B,2) x4 | x8 | %27
 (F3 G) FEDE |[M:6/4] (F4 E2) x6 | D8- D2 E!ppp!C | x12 |] %31
V:4
!mf!"^Вос      –       –       крес                   из         гро     –     ба       и           у  –  зы   рас–тер   –  зал                                        е  –""^Vos      –       –        kres                   iz           gro     –     ba        i            u  –  zyi  ras– ter   –   zal                                        ye –" (A2 B2!>(! c2 de)!>)! | %1
!p! (f3 g fe) de | (f3 g) fe de | f3 g!>(! ag a2!>)! |!pp!!<(! _b6 fg!<)! | %5
!mf! (a2 g2!>(! fedc)!>)! |!p!!>(! (c2 B2)!pp! !breath!c4!>)! | %7
!p!"^раз –ру – шил             е          –       си      о    –    суж     –      де            –          ни –""^raz –ru  – shil               ye        –       si       o    –   suzh     –     de             –          ni  –" c2!<(! de!>(! (f3 g)!<)!!>)! | %8
!p! e4 E2!<(! FG!<)! | (3!tenuto!A!tenuto!_B!tenuto!c!f! (!tenuto!d2 !>!^c2)!<(! de!<)! | %10
"^– е           смер     –      ти,          Гос–по–ди,                            вся  от  се    –   тей         вра–га          из   – ба  – ви  – вый;""^– ye         smer     –      ti,            Gos–po–di,                          vsya  ot   se    –    tei          vra –ga           iz    – ba  – vi   –  vyii;" dc _B2- B!>(!c [Ad]2!>)! | %11
!>(! de [Bf]2!p! !breath![ce]4!>)! |[M:2/4]!p! F2 GA |[M:4/4] A3 B!<(! c3 d!<)! | %14
!>(! !tenuto!e2 A2!p! A4!>)! | %15
[M:6/4]!mf!"^ya      –        vi    –   vyii  zhe   Se      –       be                                          a     –     po     –      sto         –          lom,         po  –""^я         –       ви   –  вый  же    Се      –       бе                                          а      –    по     –     сто         –          лом,        по  –" (_B3 d)!<(! ^c2 d[ce]!>(! f2"^Се       –       бе        а   –  по        –          –         сто–лом  Тво       –         им,""^Se       –       be         a   – po         –          –         sto –lom  Tvo        –         im," fe!<)!!>)! | %16
[M:4/4]!p!!p! fg fe (de f2- | f2) e2 dc!>(! d2-!>)! | d4!pp! !breath!c4 |!p! !tenuto!f8 | %20
!pp!"^–слал                   е     –    си                         на        про–по–ведь,     и  те–ми мир Твой  по    –    дал     е    –   си  все-лен-ней,""^–slal                     ye   –    si                          na         pro–po–ved',       i  tye-mi  mir  Tvoi   po    –     dal     ye  –    si  vse–len–nei," d6 f2 | %21
 d6 f2 | e2 d2 c4 |"^немного выделяя"!mf!"^slightly separated" cd e2 e2 ef |!>(! g4 f2 e2!>)! | %25
 d!>(!e f2!p! e4-!>)! | %26
 e2"^е   –   ди             –          не     Мно–го       –      ми             –          лос  – ти      –     ве.""^ye  –   di               –         ne     Mno–go       –      mi              –          los   –   ti       –   vye." c2 (d2 e2 | %27
 f2)"^– не    Мно –го       –      ми           –           лос –ти       –      ве.""^– ne    Mno –go       –      mi            –            los –  ti        –     vye."!>(! A2 B2 c2!>)! | %28
[M:6/4] (d2 ed cd) cB (A2 G2) | (A3 B AGFG AB c2 |!ppp! !fermata![GBd]12) |] %31
V:5
 x8 | x8 | x8 | x8 | x2 x2 x2 _B2 | A8 | c2 x2 x4 | x8 | x8 | x8 | x8 | A2 x2 x4 |[M:2/4] x4 | %13
[M:4/4] x8 | x8 |[M:6/4] x2 x2 x2 x2 d2 D2 |[M:4/4] D8 | D2 E4 (A2- | A2 B2) c4 | (A6!>(! f2) | %20
 A6 f2 | A6 f2 | x8 | x8!>)! | x8 | x2 x2 G4- | G8- | G4 B2 c2 |[M:6/4] x12 | x12 | x12 |] %31
V:6
!mf!"^Vos      –       –        kres                    iz            gro           –         ba          u      –      zyi                       ras       –        –        –       ter  –""^Вос      –       –       крес                   из           гро          –          ба,         у     –       зы                       рас       –        –        –      тер  –"!>(! D,8!>)! | %1
!p! [G,,D,]6 F,E, | [G,,D,]6 F,E, | (D,3 E,)!>(! [G,,F,]4!>)! | %4
!pp!"^рас    –  тер  –  зал      е  –""^ras     –  ter   –  zal       ye –" E,F,!<(! G,A, _B,C D2!<)! | %5
!mf!"^–  зал                е  –      си        а      –      да,""^–   zal""^–   zal               ye –       si         a      –      da,""^–  зал"!<(! (D,3 E,) F,G,!>(! F,E,!<)!!>)! | %6
!p!"^a       –      da,""^а       –      да,"!>(! (D,E, F,2)!pp! !breath!E,4!>)! | %7
!p!"^raz –ru   – shil             ye  –  si        o         –       suzh     –      de           –            ni  –""^раз –ру  – шил            е   –  си       о         –        суж      –      де          –            ни –" D,2!<(! D,2!>(! !tenuto![B,,G,]4!<)!!>)! | %8
!p! C,D, E,2 A,,4 |!<(! D,2!f! G,4 G,2!<)! | %10
"^– ye          smer     –      ti,                           vsya  ot    se      –       tei                        vra  – ga                     iz      –    ba  – vi  –  vyii;""^– е            смер     –      ти,                           вся  от   се       –      тей                      вра  – га                    из     –    ба – ви  –  вый;" G,2!>(! G,4 (F,2-!>)! | %11
!>(! F,2 G,2)!p! A,,2!<(! B,,C,!>)!!<)! |[M:2/4]!mf! D,4 |[M:4/4] C,2!<(! D,4 E,F,!<)! | %14
 !tenuto!G,2 F,E, D,4- | %15
[M:6/4]!mf! D,2"^я    –   ви       –        вый   Се     –      бе        a  –   по        –          –          сто     –    лом      Тво – им,          по  –""^ya  –    vi       –         vyii    Se     –      be        a   –  po         –         –          sto     –      lom      Tvo –  im,         po  –""^я    –    ви       –      вый   Се       –       бе                                          а    –     по     –      сто        –           лом,       по  –""^ya  –    vi         –      vyii    Se       –       be                                          a    –      po    –      sto         –            lom,       po  –" G,A, _B,4!>(! A,2 C2!>)! | %16
[M:4/4]!p! B,2 A,2 (B,2 CA, | B,A,) B,4!>(! A,G,!>)! | (F,E, F,2)!pp! !breath![C,G,]4 | %19
!p! (D,6!>(! G,2)!>)! |!pp! C,6 G,2 | C,6 G,2 | C,D, E,2 (A,,2 D,2) | %23
!p!"^i                                        mir                                         po      –      dal.""^и                                       мир                                        по       –     дал.""^и                те – ми       мир           по  –  дал,     по      –        дал""^i                 tye –mi       mir            po  –  dal,       po      –       dal" (E,2 B,2) A,2 G,F, | %24
 E,4 F,2 G,A, | (F,E,) D,2 (C,4- | %26
"^Воскрес из гроба и узы растерзал еси ада,\nразрушил еси осуждение смерти, Господи,\nвся от сетей врага избавивый; явивый же Себе \nапостолом Твоим, послал еси я на проповедь,\nи теми мир Твой подал еси вселенней,\nедине Многомилостиве." C,8- | %27
!>(! C,8-!>)! | %28
[M:6/4] C,8- C,2"^–  ти –  ве.""^–   ti  –  vye.""^Risen from the grave and broken the bonds of hell, \nYou have destroyed the condemnation of death, Lord, \nall the entanglements of the enemy; revealing Yourself \nto Your apostles, You sent them forth to preach,\nto the farthest parts of Your world,\nO You who have many mercies." E,2 | %29
!ppp! D,12- | !fermata!D,12) |] %31
V:7
 x8 | x4 x2 G,,2 | x2 x2 x2 G,,2 | G,,4 x4 | G,,6 G,2 | D,3 z z4 | G,,4 [C,,G,,]4 | D,2 D,2 x4 | %8
 x8 | x8 | x8 | x8 |[M:2/4] x4 |[M:4/4] x8 | x8 |[M:6/4] D,2 G,A, _B,4 A,2 D,2 |[M:4/4] G,,8 | %17
 G,,2 (^G,,2 A,,2) (F,,2- | F,,2 G,,2) x4 | x8 | x8 | x8 | x8 | G,,8 | G,,8 | G,,4 C,4 | x8 | x8 | %28
[M:6/4] x12 | x12 | x12 |] %31

